assets/svg/quote.svg

<?xml version="1.0" encoding="UTF-8" standalone="no"?>
<svg width="36px" height="36px" viewBox="0 0 36 36" version="1.1" xmlns="http://www.w3.org/2000/svg" xmlns:xlink="http://www.w3.org/1999/xlink">
    <!-- Generator: Sketch 44.1 (41455) - http://www.bohemiancoding.com/sketch -->
    <title>Group 4</title>
    <desc>Created with Sketch.</desc>
    <defs></defs>
    <g id="Page-1" stroke="none" stroke-width="1" fill="none" fill-rule="evenodd">
        <g id="Article" transform="translate(-523.000000, -1178.000000)">
            <g id="Group-4" transform="translate(523.000000, 1178.000000)">
                <circle id="Oval" fill="currentColor" cx="18" cy="18" r="18"></circle>
                <path d="M10.9980469,23.2558594 L11.1386719,21.7441406 C13.5879029,21.1933566 14.8125,20.1855542 14.8125,18.7207031 C14.8125,18.298826 14.4257851,17.8417993 13.6523438,17.3496094 C12.8671836,16.8574194 12.4746094,16.2480505 12.4746094,15.5214844 C12.4746094,14.8769499 12.6796854,14.3613301 13.0898438,13.9746094 C13.5000021,13.5878887 14.0390592,13.3945312 14.7070312,13.3945312 C15.515629,13.3945312 16.1835911,13.6611301 16.7109375,14.1943359 C17.2382839,14.7275417 17.5019531,15.445308 17.5019531,16.3476562 C17.5019531,18.1054775 16.9453181,19.5908142 15.8320312,20.8037109 C14.7187444,22.0166076 13.1074324,22.8339823 10.9980469,23.2558594 Z M18.1523438,23.2558594 L18.2929688,21.7441406 C20.7421997,21.1933566 21.9667969,20.1855542 21.9667969,18.7207031 C21.9667969,18.298826 21.580082,17.8417993 20.8066406,17.3496094 C20.0214804,16.8574194 19.6289062,16.2480505 19.6289062,15.5214844 C19.6289062,14.8769499 19.8339823,14.3613301 20.2441406,13.9746094 C20.6542989,13.5878887 21.193356,13.3945312 21.8613281,13.3945312 C22.6699259,13.3945312 23.3408176,13.6669895 23.8740234,14.2119141 C24.4072292,14.7568387 24.6738281,15.4687456 24.6738281,16.3476562 C24.6738281,18.1171963 24.1084041,19.6054627 22.9775391,20.8125 C21.846674,22.0195373 20.2382917,22.8339823 18.1523438,23.2558594 Z" id="„" fill="#FFFFFF"></path>
            </g>
        </g>
    </g>
</svg>

<svg width="36" height="36" viewBox="0 0 36 36" xmlns="http://www.w3.org/2000/svg"><g fill="none" fill-rule="evenodd"><circle fill="currentColor" cx="18" cy="18" r="18"/><path d="M10.998 23.256l.14-1.512c2.45-.55 3.675-1.558 3.675-3.023 0-.422-.387-.88-1.16-1.371-.786-.493-1.178-1.102-1.178-1.829 0-.644.205-1.16.615-1.546.41-.387.95-.58 1.617-.58.809 0 1.477.266 2.004.8.527.533.791 1.25.791 2.153 0 1.757-.557 3.243-1.67 4.456-1.113 1.213-2.725 2.03-4.834 2.452zm7.154 0l.141-1.512c2.45-.55 3.674-1.558 3.674-3.023 0-.422-.387-.88-1.16-1.371-.786-.493-1.178-1.102-1.178-1.829 0-.644.205-1.16.615-1.546.41-.387.95-.58 1.617-.58.809 0 1.48.272 2.013.817.533.545.8 1.257.8 2.136 0 1.77-.566 3.257-1.696 4.465-1.131 1.207-2.74 2.021-4.826 2.443z" fill="#FFF"/></g></svg>
